X:1
T:Title
%%score ( 1 2 ) ( 3 4 )
L:1/8
Q:1/4=80
M:4/4
K:G
V:1 treble nm="Strings 1, Soprano"
V:2 treble 
V:3 bass nm="Strings 1, Bass"
V:4 bass 
V:1
 z4 z2 z [B,D] | [B,D][B,G] [B,G]>[CA] [DB] [DB]2 [B,G] | [CA][CG][CE][CG] [B,D]4 | %3
w: 1.~We're~|band~ of~ hap py~ pil grims~ bound~|for~ our~ home~ a bove,~|
 [B,D][B,G] [DG]>[DA] [DB][DB][DA][^CG] | [DA]6 z [CD] | [B,D][B,G] [B,G]>[CA] [DB] [DB]2 [B,G] | %6
w: Walk ing~ in~ the~ high way~ of~ the~|King;~ Our~|lips~ are~ filled~ with~ prais es,~ our~|
 [CA][CG][CE][CG] [B,D]4 | [B,D][DG] [DG]>[EA] [DB][DB][CA][CA] | [B,G]6 z2 | %9
w: hearts~ are~ full~ of~ love,~|Walk ing~ in~ the~ high way~ of~ the~|King.~|
 [Gd][Gd] [Gd]>[Gd] [Ge][Gd][GB][Gc] | d6 z2 | [GB][GB] [GB]>[GB] [Gd][GB][GA]G | A6 z2 | %13
w: ||||
 [GB][GB]G[GA] [GB]3 [DG] | [EA][EG][CE][CG] [B,D]4 | [B,D][DG] [DG]>[DA] [DB][DB][CA][CA] | %16
w: |||
 [B,G]6 z2 |] %17
w: |
V:2
 x8 | x8 | x8 | x8 | x8 | x8 | x8 | x8 | x8 | x8 | GGBA G2 z2 | x8 | FFFF F2 z G | x8 | x8 | x8 | %16
 x8 |] %17
V:3
 z4 z2 z [G,,G,] | [G,,G,][G,,G,] [G,,G,]>[G,,G,] [G,,G,] [G,,G,]2 [G,,G,] | %2
 [C,E,][C,E,][C,G,][E,G,] G,4 | [G,,G,][G,,G,] [B,,G,]>[D,F,] G,G,[F,A,][E,A,] | [D,F,]6 z [D,F,] | %5
 [G,,G,][G,,D,] [G,,D,]>[G,,D,] [G,,G,] [G,,G,]2 [G,,G,] | [C,E,][C,E,][C,G,][E,G,] G,4 | %7
 [G,,G,][B,,G,] [B,,G,]>[C,G,] [D,G,][D,G,][D,F,][D,F,] | [G,,G,]6 z2 | %9
 [G,B,][G,B,] [G,B,]>[G,B,] [G,C][G,B,][G,D][G,C] | [G,B,][G,B,][G,D][G,C] [G,B,]2 z2 | %11
 [G,D][G,D] [G,D]>[G,D] [G,B,][G,D][E,^C][E,C] | D6 z2 | [G,D][G,D][G,B,][G,C] [G,D]3 [G,B,] | %14
 [C,C][C,C][C,G,][E,G,] G,4 | [G,,G,][B,,G,] [B,,G,]>[C,G,] [D,G,][D,G,][D,F,][D,F,] | %16
 [G,,G,]6 z2 |] %17
V:4
 x8 | x8 | x8 | x8 | x8 | x8 | x8 | x8 | x8 | x8 | x8 | x8 | D,D,F,A, D,2 z [G,B,] | x8 | x8 | x8 | %16
 x8 |] %17

